img/icons/social/WhatsApp.svg

<svg width="36" height="36" viewBox="0 0 36 36" fill="none" xmlns="http://www.w3.org/2000/svg">
<path d="M10.473 31.1869L10.6606 31.2898C12.9955 32.5701 15.6794 33.2999 18.5378 33.2999C27.5407 33.2999 34.8311 26.0654 34.8311 17.15C34.8311 8.23449 27.5403 1 18.5382 1C9.5349 1 2.2443 8.23451 2.2443 17.15C2.2443 20.2007 3.09821 23.0536 4.58069 25.4869L4.70225 25.6864L4.62719 25.9077L1.91406 33.9044L10.2689 31.2516L10.473 31.1869Z" stroke="#363636" stroke-width="2"/>
<path d="M16.315 13.0684C16.449 13.3346 16.5904 13.7552 16.3491 14.2332C16.3317 14.268 16.3148 14.3024 16.298 14.3368L16.2979 14.337C16.1933 14.5504 16.09 14.7611 15.8697 15.016C15.8193 15.0743 15.7607 15.1449 15.6981 15.2202L15.6884 15.2319L15.6871 15.2335C15.537 15.4142 15.3651 15.6212 15.2253 15.7594C15.1722 15.8118 15.1382 15.8464 15.1124 15.8782C15.085 15.9077 15.0876 15.9306 15.1241 15.9825C15.3551 16.3765 16.1499 17.6583 17.314 18.6874C18.5624 19.791 19.6227 20.2488 20.2118 20.5031L20.2168 20.5052C20.337 20.5572 20.4375 20.6006 20.5155 20.6394C20.6634 20.7128 20.7405 20.7186 20.7405 20.7186L20.7414 20.7181C20.7414 20.7181 20.7732 20.6959 20.8104 20.6537C21.0567 20.375 21.8216 19.4823 22.0735 19.1067C22.2652 18.8208 22.5187 18.6202 22.8573 18.5821C23.1392 18.5504 23.4085 18.6473 23.5821 18.7098L23.5848 18.7108C23.8035 18.7895 24.4341 19.0856 25.0246 19.3682C25.6312 19.6586 26.2428 19.9578 26.4508 20.0607C26.5094 20.0898 26.5715 20.1196 26.6334 20.1493L26.6489 20.1568L26.6566 20.1605C26.7735 20.2167 26.8885 20.2719 26.9773 20.3204C27.1195 20.3978 27.3187 20.5185 27.4443 20.7247L27.4458 20.7273C27.5365 20.8783 27.56 21.0654 27.5695 21.1868C27.5811 21.3357 27.5788 21.5119 27.562 21.7049C27.5283 22.0919 27.4333 22.5777 27.2473 23.0956C27.017 23.7337 26.3905 24.2772 25.8113 24.6486C25.2252 25.0243 24.5364 25.3193 24.0434 25.3638C23.9488 25.3723 23.8918 25.3862 23.8068 25.407L23.8057 25.4073C23.7524 25.4202 23.6882 25.4358 23.597 25.4545C23.3808 25.4988 23.1292 25.5261 22.7669 25.4912C22.0744 25.4245 20.9717 25.1288 18.8758 24.3107C16.6857 23.4553 14.9188 21.9239 13.6837 20.5937C13.0636 19.926 12.5715 19.3024 12.2213 18.8285C12.0461 18.5914 11.9063 18.3916 11.804 18.2428C11.7638 18.1843 11.7291 18.1333 11.701 18.092L11.68 18.0612C11.6642 18.038 11.6518 18.0199 11.642 18.0058C11.6313 17.9904 11.6275 17.9852 11.6275 17.9852L11.6268 17.9842C11.5154 17.8374 11.0764 17.2584 10.6637 16.4526C10.2529 15.6504 9.8457 14.5808 9.8457 13.4633C9.8457 11.3844 10.8946 10.2749 11.338 9.80578L11.3381 9.80568C11.3677 9.77438 11.3949 9.74558 11.4187 9.71988C11.9072 9.1914 12.4963 9.04883 12.8839 9.04883C13.0395 9.04883 13.192 9.05851 13.3234 9.06695L13.3273 9.06719C13.4632 9.07593 13.5732 9.083 13.673 9.083C13.6837 9.083 13.6977 9.08223 13.7358 9.07979L13.7368 9.07971C13.769 9.07764 13.8179 9.07451 13.871 9.07452C13.9838 9.07454 14.1329 9.08811 14.2949 9.15765C14.6264 9.30001 14.867 9.61064 15.06 10.0702C15.1702 10.3329 15.3301 10.7187 15.4994 11.1273C15.5941 11.3558 15.6918 11.5914 15.7853 11.8165C15.9161 12.1312 16.0389 12.4258 16.1354 12.654C16.1836 12.7683 16.2248 12.8648 16.2569 12.9386C16.2729 12.9755 16.2862 13.0057 16.2967 13.0289L16.3095 13.0568L16.3134 13.065L16.315 13.0684Z" stroke="#363636" stroke-width="2"/>
</svg>

<svg width="36" height="36" fill="none" xmlns="http://www.w3.org/2000/svg"><path d="M10.473 31.187l.188.103a16.333 16.333 0 007.877 2.01c9.003 0 16.293-7.235 16.293-16.15C34.831 8.234 27.541 1 18.538 1S2.244 8.235 2.244 17.15c0 3.05.854 5.904 2.337 8.337l.121.2-.075.22-2.713 7.997 8.355-2.652.204-.065z" stroke="#363636" stroke-width="2"/><path d="M16.315 13.068c.134.267.275.687.034 1.165l-.051.104h0a2.828 2.828 0 01-.428.679l-.172.204-.01.012v.002c-.151.18-.323.387-.463.525a1.562 1.562 0 00-.113.12c-.027.029-.024.052.012.104.231.393 1.026 1.675 2.19 2.704a10.105 10.105 0 002.898 1.816l.005.002c.12.052.22.096.299.134a.69.69 0 00.225.08h0s.032-.023.07-.065c.246-.279 1.01-1.172 1.262-1.547.192-.286.446-.487.784-.525.282-.032.552.065.725.128h.003c.218.08.85.376 1.44.658a147.45 147.45 0 011.608.781l.016.008.008.003c.116.057.232.112.32.16.142.078.342.198.467.405l.002.002c.09.151.114.338.123.46.012.149.01.325-.007.518a5.646 5.646 0 01-.315 1.39c-.23.639-.857 1.182-1.436 1.554-.586.375-1.275.67-1.768.715a1.397 1.397 0 00-.236.043h-.001c-.054.013-.118.029-.209.047a2.661 2.661 0 01-.83.037c-.693-.067-1.795-.362-3.891-1.18-2.19-.856-3.957-2.387-5.192-3.717a20.587 20.587 0 01-1.983-2.502l-.021-.03a7.43 7.43 0 00-.038-.056l-.014-.02-.001-.002c-.112-.147-.55-.726-.963-1.531-.411-.803-.818-1.872-.818-2.99 0-2.079 1.049-3.188 1.492-3.657h0l.08-.086a2.018 2.018 0 011.466-.671c.155 0 .308.01.44.018h.003c.136.009.246.016.346.016.01 0 .025 0 .063-.003h0c.033-.002.082-.005.135-.005.113 0 .262.013.424.083.331.142.572.453.765.912a302.828 302.828 0 01.725 1.746 159.14 159.14 0 00.472 1.123l.04.09.012.028.004.008.002.003z" stroke="#363636" stroke-width="2"/></svg>
